icons/svgs/steering-wheel-solid.svg

<svg width="24" height="24" viewBox="0 0 24 24" fill="none" xmlns="http://www.w3.org/2000/svg">
<path d="M10.75 16.0234L8.5625 13.25H4.57812C5.125 16.4141 7.58594 18.875 10.75 19.4219V16.0234ZM13.25 16.0234V19.4219C16.375 18.875 18.8359 16.4141 19.3828 13.25H15.3984L13.25 16.0234ZM15.75 10.75H19.3828C18.7969 7.23438 15.7109 4.5 12 4.5C8.25 4.5 5.16406 7.23438 4.57812 10.75H8.25L8.52344 10.2031C8.71875 9.77344 9.14844 9.5 9.61719 9.5H14.3438C14.8125 9.5 15.2422 9.77344 15.4375 10.2031L15.75 10.75ZM12 22C8.40625 22 5.125 20.125 3.32812 17C1.53125 13.9141 1.53125 10.125 3.32812 7C5.125 3.91406 8.40625 2 12 2C15.5547 2 18.8359 3.91406 20.6328 7C22.4297 10.125 22.4297 13.9141 20.6328 17C18.8359 20.125 15.5547 22 12 22Z" fill="black"/>
</svg>

<svg xmlns="http://www.w3.org/2000/svg" width="24" height="24" fill="currentColor" class="icon-steering-wheel-solid" viewBox="0 0 24 24">
  <mask id="a" width="21" height="20" x="1" y="2" maskUnits="userSpaceOnUse" style="mask-type:alpha">
    <path d="M10.75 16.023 8.563 13.25H4.578a7.555 7.555 0 0 0 6.172 6.172zm2.5 0v3.399a7.56 7.56 0 0 0 6.133-6.172h-3.985zm2.5-5.273h3.633C18.797 7.234 15.71 4.5 12 4.5c-3.75 0-6.836 2.734-7.422 6.25H8.25l.273-.547c.196-.43.625-.703 1.094-.703h4.727c.469 0 .898.273 1.094.703zM12 22c-3.594 0-6.875-1.875-8.672-5-1.797-3.086-1.797-6.875 0-10C5.125 3.914 8.406 2 12 2c3.555 0 6.836 1.914 8.633 5 1.797 3.125 1.797 6.914 0 10A9.93 9.93 0 0 1 12 22"/>
  </mask>
  <g mask="url(#a)">
    <path d="M0 0h24v24H0z"/>
  </g>
</svg>
